src/standard/media/envelope.svg

<svg xmlns="http://www.w3.org/2000/svg" viewBox="0 0 36 36">
  <path d="M31.62 27V9a.59.59 0 0 0-.23-.48.52.52 0 0 0-.39-.14H5a.62.62 0 0 0-.62.62v18a.62.62 0 0 0 .62.62h26a.62.62 0 0 0 .62-.62Zm-10.06-9.44L18 21.12l-3.56-3.56-7.93-7.94h23Zm-8.44.44-7.5 7.49v-15Zm.88.88 3.56 3.56a.63.63 0 0 0 .88 0L22 18.88l7.49 7.5h-23Zm8.88-.88 7.5-7.49v15Z"/>
</svg>

<svg id="f437cd1f-d3ab-470c-965d-caa90b4bf7e9" data-name="Icon" xmlns="http://www.w3.org/2000/svg" viewBox="0 0 36 36">
  <path d="M31.62,27V9a.59.59,0,0,0-.23-.48A.52.52,0,0,0,31,8.38H5A.62.62,0,0,0,4.38,9V27a.62.62,0,0,0,.62.62H31A.62.62,0,0,0,31.62,27ZM21.56,17.56h0L18,21.12l-3.56-3.56h0L6.51,9.62h23ZM13.12,18l-7.5,7.49v-15Zm.88.88,3.56,3.56a.63.63,0,0,0,.88,0L22,18.88l7.49,7.5h-23ZM22.88,18l7.5-7.49v15Z"/>
</svg>
